img/icon/Icon_3.svg

<svg width="81" height="79" viewBox="0 0 81 79" fill="none" xmlns="http://www.w3.org/2000/svg">
<g id="Layer 2">
<g id="Layer 1">
<path id="ecology" d="M78.9959 58.6588C78.5175 58.3069 77.9564 58.0812 77.3654 58.0029C76.7744 57.9247 76.173 57.9964 75.6178 58.2113C75.8084 57.5004 75.7647 56.748 75.4931 56.0633C75.2215 55.3786 74.7361 54.7973 74.1074 54.404C72.4661 53.1593 69.9687 54.2222 65.8301 55.9807C62.6819 57.3769 59.4427 58.5636 56.1344 59.5328C55.5915 58.7658 54.8687 58.14 54.0279 57.7089C53.1871 57.2779 52.2532 57.0544 51.306 57.0576C48.1057 57.1714 44.9011 57.0616 41.7164 56.7289V50.3624H59.8981C64.504 50.3513 68.9175 48.536 72.1718 45.3144C75.4259 42.0928 77.2553 37.7275 77.2591 33.1752C77.2591 32.8572 77.1312 32.5521 76.9037 32.3272C76.6762 32.1024 76.3676 31.976 76.0458 31.976H56.665C53.6429 31.9799 50.6741 32.7635 48.0523 34.2492C45.4306 35.7349 43.2466 37.8714 41.7164 40.4472V18.3864H59.8981C64.504 18.3753 68.9175 16.56 72.1718 13.3384C75.4259 10.1168 77.2553 5.75154 77.2591 1.19919C77.2582 0.883828 77.132 0.581432 76.9077 0.357133C76.6834 0.132835 76.379 0.0045825 76.0599 0L56.665 0C52.0567 0.00740463 47.6395 1.82102 44.3822 5.04304C41.1249 8.26506 39.2936 12.6324 39.2899 17.1872V24.4732C37.7615 21.8948 35.5783 19.7555 32.9564 18.2673C30.3345 16.779 27.3648 15.9933 24.3413 15.988H4.94637C4.62487 15.9889 4.31681 16.1156 4.08947 16.3403C3.86214 16.5649 3.73401 16.8694 3.73308 17.1872C3.73588 21.7422 5.56692 26.1101 8.82438 29.3324C12.0818 32.5546 16.4996 34.3679 21.1082 34.3744H39.2899V56.2884C31.1152 53.0789 34.1042 51.7014 12.0103 51.4637L1.91491 49.8764C1.7411 49.8499 1.56354 49.8605 1.39427 49.9077C1.22499 49.9549 1.06794 50.0374 0.933771 50.1498C0.799598 50.2622 0.691428 50.4018 0.616589 50.5591C0.54175 50.7164 0.50199 50.8878 0.5 51.0616V72.6295C0.499889 72.9146 0.602837 73.1903 0.79028 73.407C0.977723 73.6237 1.23733 73.767 1.52228 73.8112L11.6248 75.3985C26.729 80.6847 58.9006 81.9888 77.5456 66.1126C78.8296 65.3784 82.565 61.4453 78.9959 58.6588ZM63.1099 7.99575C56.711 7.71606 47.0436 8.1321 42.8342 11.5618C43.9595 8.85757 45.8707 6.5437 48.3262 4.91268C50.7816 3.28166 53.6712 2.4067 56.6296 2.39838H74.783C74.4768 6.09775 72.7751 9.54827 70.0153 12.0655C67.2555 14.5827 63.6393 15.9828 59.8839 15.988H41.9782C43.2198 13.1037 48.8087 10.3941 56.665 10.3941H63.1099C63.4317 10.3941 63.7403 10.2678 63.9679 10.0429C64.1954 9.818 64.3232 9.51298 64.3232 9.19494C64.3232 8.87689 64.1954 8.57187 63.9679 8.34698C63.7403 8.12209 63.4317 7.99575 63.1099 7.99575ZM21.1082 31.976C17.3527 31.9701 13.7365 30.5699 10.9763 28.0528C8.21614 25.5358 6.51342 22.0858 6.20564 18.3864H24.3413C27.3 18.3954 30.1897 19.2711 32.6451 20.9027C35.1005 22.5343 37.0115 24.8487 38.1367 27.5533C33.9556 24.1236 24.267 23.7006 17.8716 23.9838C17.5616 24.0003 17.2698 24.1337 17.0563 24.3564C16.8428 24.5792 16.7238 24.8744 16.7238 25.1812C16.7238 25.488 16.8428 25.7832 17.0563 26.0059C17.2698 26.2287 17.5616 26.3621 17.8716 26.3786H24.3342C32.1941 26.3786 37.7759 29.0917 39.021 31.9725L21.1082 31.976ZM10.6945 72.8218L2.91243 71.6051V52.4671L10.6945 53.6837V72.8218ZM56.9126 61.8054C62.406 60.5922 68.4159 56.7219 72.6323 56.3059C76.5764 59.6867 61.7587 63.3332 56.7711 64.8016C57.0514 63.827 57.0999 62.8015 56.9126 61.8054ZM56.665 34.3744H74.783C74.476 38.0735 72.7741 41.5235 70.0145 44.0406C67.2548 46.5577 63.6391 47.958 59.8839 47.964H41.9782C43.2198 45.0797 48.8087 42.3701 56.665 42.3701H63.1099C63.4317 42.3701 63.7403 42.2438 63.9679 42.0189C64.1954 41.794 64.3232 41.489 64.3232 41.1709C64.3232 40.8529 64.1954 40.5479 63.9679 40.323C63.7403 40.0981 63.4317 39.9718 63.1099 39.9718C56.7145 39.6921 47.0436 40.1116 42.8342 43.5414C43.9613 40.8309 45.8777 38.5125 48.3401 36.8804C50.8026 35.2483 53.7001 34.3761 56.665 34.3744ZM76.1201 64.1863C51.3308 83.625 18.6816 75.0244 13.1352 73.3497V53.8621C29.6897 53.9355 32.4417 55.5367 34.8753 56.9492C37.3762 58.3966 39.5304 59.6482 51.4157 59.4559C51.9169 59.4546 52.4118 59.5669 52.8624 59.7841C53.3129 60.0014 53.707 60.3178 54.0144 60.7091C54.3219 61.1004 54.5344 61.5562 54.6358 62.0414C54.7372 62.5266 54.7247 63.0283 54.5992 63.508C54.5992 63.8576 54.4118 65.0358 52.2965 65.8085C50.0291 66.686 45.0344 67.4342 34.0971 66.0322C33.7777 65.9914 33.4549 66.0777 33.1999 66.2721C32.9448 66.4665 32.7783 66.7531 32.737 67.0689C32.6958 67.3846 32.7831 67.7036 32.9798 67.9557C33.1765 68.2078 33.4664 68.3723 33.7858 68.4131C46.3291 71.2345 63.5698 66.0707 72.1053 62.0886C74.5814 61.0397 76.9301 60.0643 77.4572 60.4978C79.1798 61.7914 76.9053 63.536 76.1024 64.1863H76.1201ZM6.80698 56.6031C7.12876 56.6031 7.43737 56.7294 7.6649 56.9543C7.89244 57.1792 8.02027 57.4842 8.02027 57.8022C8.02027 58.1203 7.89244 58.4253 7.6649 58.6502C7.43737 58.8751 7.12876 59.0014 6.80698 59.0014C6.48519 59.0014 6.17659 58.8751 5.94905 58.6502C5.72152 58.4253 5.59369 58.1203 5.59369 57.8022C5.59369 57.4842 5.72152 57.1792 5.94905 56.9543C6.17659 56.7294 6.48519 56.6031 6.80698 56.6031Z" fill="#161616"/>
</g>
</g>
</svg>

<svg xmlns="http://www.w3.org/2000/svg" width="81" height="79" fill="none"><path fill="#161616" d="M78.996 58.659a3.552 3.552 0 0 0-3.378-.447 3.42 3.42 0 0 0-.125-2.149 3.467 3.467 0 0 0-1.386-1.659c-1.64-1.245-4.138-.182-8.277 1.577a78.025 78.025 0 0 1-9.696 3.552 5.849 5.849 0 0 0-2.106-1.824 5.924 5.924 0 0 0-2.722-.651c-3.2.113-6.405.004-9.59-.33v-6.366h18.182a17.507 17.507 0 0 0 12.274-5.048 17.101 17.101 0 0 0 5.087-12.139c0-.318-.128-.623-.355-.848a1.22 1.22 0 0 0-.858-.351H56.665a17.52 17.52 0 0 0-8.613 2.273 17.265 17.265 0 0 0-6.336 6.198v-22.06h18.182a17.507 17.507 0 0 0 12.274-5.049A17.101 17.101 0 0 0 77.259 1.2c0-.315-.127-.618-.351-.842A1.224 1.224 0 0 0 76.06 0H56.665a17.507 17.507 0 0 0-12.283 5.043 17.1 17.1 0 0 0-5.092 12.144v7.286a17.264 17.264 0 0 0-6.334-6.206 17.518 17.518 0 0 0-8.615-2.279H4.946c-.321 0-.63.128-.857.352-.227.225-.355.53-.356.847a17.097 17.097 0 0 0 5.091 12.145 17.504 17.504 0 0 0 12.284 5.042H39.29v21.914c-8.175-3.21-5.186-4.587-27.28-4.824L1.915 49.876a1.242 1.242 0 0 0-.981.274 1.215 1.215 0 0 0-.434.912v21.567c0 .286.103.561.29.778.188.217.447.36.732.404l10.103 1.587c15.104 5.287 47.276 6.59 65.92-9.285 1.285-.735 5.02-4.668 1.45-7.454ZM63.11 7.996c-6.399-.28-16.066.136-20.276 3.566a14.826 14.826 0 0 1 5.492-6.65 15.087 15.087 0 0 1 8.304-2.514h18.153a14.731 14.731 0 0 1-4.768 9.668 15.067 15.067 0 0 1-10.131 3.922H41.978c1.242-2.884 6.83-5.594 14.687-5.594h6.445c.322 0 .63-.126.858-.351a1.192 1.192 0 0 0 0-1.696 1.22 1.22 0 0 0-.858-.351Zm-42.002 23.98a15.074 15.074 0 0 1-10.132-3.923 14.738 14.738 0 0 1-4.77-9.667H24.34a15.09 15.09 0 0 1 8.304 2.517 14.83 14.83 0 0 1 5.492 6.65c-4.181-3.43-13.87-3.852-20.265-3.57a1.22 1.22 0 0 0-.816.373 1.192 1.192 0 0 0 0 1.65c.214.223.506.356.816.373h6.462c7.86 0 13.442 2.713 14.687 5.593l-17.913.004ZM10.694 72.822l-7.782-1.217V52.467l7.782 1.217v19.138Zm46.219-11.017c5.493-1.213 11.503-5.083 15.72-5.5 3.943 3.382-10.874 7.028-15.862 8.497.28-.975.329-2 .142-2.997Zm-.248-27.43h18.118a14.735 14.735 0 0 1-4.769 9.666 15.07 15.07 0 0 1-10.13 3.923H41.978c1.242-2.884 6.83-5.594 14.687-5.594h6.445c.322 0 .63-.126.858-.351a1.192 1.192 0 0 0 0-1.696 1.22 1.22 0 0 0-.858-.351c-6.395-.28-16.066.14-20.276 3.57a14.827 14.827 0 0 1 5.506-6.662 15.088 15.088 0 0 1 8.325-2.506ZM76.12 64.185C51.33 83.625 18.682 75.024 13.135 73.35V53.862c16.555.073 19.307 1.675 21.74 3.087 2.501 1.448 4.655 2.7 16.54 2.507.502-.001.997.11 1.447.328.45.217.845.534 1.152.925a3.223 3.223 0 0 1 .585 2.799c0 .35-.187 1.528-2.302 2.3-2.268.878-7.263 1.626-18.2.224-.32-.04-.642.046-.897.24a1.19 1.19 0 0 0-.22 1.684c.196.252.486.416.806.457 12.543 2.822 29.784-2.342 38.32-6.324 2.475-1.05 4.824-2.025 5.351-1.591 1.723 1.293-.552 3.038-1.355 3.688h.018ZM6.807 56.603c.322 0 .63.126.858.351a1.192 1.192 0 0 1 0 1.696 1.22 1.22 0 0 1-1.716 0 1.192 1.192 0 0 1 0-1.696 1.22 1.22 0 0 1 .858-.35Z"/></svg>
